X: 3
T: Maggie, Are Ye Sleeping?
T: Are Ye Sleeping, Maggie?
P: Piffero primo a0566
O: unk
%R: reel
F: http://ancients.sudburymuster.org/mus/ssp/pdf/blackwaterF.pdf
Z: 2019 John Chambers <jc:trillian.mit.edu>
M: 2/4
L: 1/16
K: Bm
|:\
F2B2 B2d2 | c3B A2c2 | d2B2 dcBA | F2d2 c2B2 :|\
f4 Bcde | f3g fed2 | e4 ABcd |
e3a fedc |\
B2Fc d2Fe | f2Fe d2Fe | f2B2 dcBA | F2d2 "^Fine"c2B2 |[|\
FBdB FBdB | GBdB GBdB |
Acec Acec | fedc dcBA |\
FBdB FBdB | GBdB GBdB | Acec Acec | fedc "^DC al Fine"dcBA |]


